X:1
T:Title
L:1/8
Q:1/4=100
M:2/4
K:F
V:1 treble nm="Grand Piano"
V:1
 z C FF | F4- | FF GA | G4- | GG AB | A2 G2 | F4 | E4 | F4 | z C FF | F4- | FF GA | G4- | GG AB | %14
 A2 G2 | F4 | E4 | F4 | z A cc | c4- | cc dc | A4- | AA BA | GA Bc | B2 G2 | A4 | z A cc | c4- | %28
 cc dc | A4- | AA BA | GA Bc | B2 G2 | F4 | z C FF | F4- | FF GA | G4- | GG AB | A2 G2 | F4 | E4 | %42
 F4 |] %43

